X: 13835
T: Four Shoves, The
R: polka
M: 2/4
K: Dmajor
|:EB B/A/B|EB A2|EB B/A/B/c/|d2 A2:|
|:df ef/e/|df fe|fd/f/ ef/e/|d2 dA|
df ef/e/|df fe|fd/f/ ef/e/|d2 dA:|

